build/system/ArrowUpOneOutline.svg

<svg xmlns="http://www.w3.org/2000/svg" fill="none" viewBox="0 0 24 24" focusable="false"><path d="M0 0H24V24H0z"/><path fill="#74767B" fill-rule="evenodd" d="M20.9578 0.696997C20.9578 0.460685 20.8295 0.242989 20.6228 0.128451C20.4161 0.0139131 20.1635 0.0205792 19.9632 0.145861L17.3084 1.80575C17.004 1.99606 16.9116 2.3971 17.1019 2.70148C17.2922 3.00587 17.6932 3.09834 17.9976 2.90802L19.6578 1.87001L19.6578 7.3765C19.6578 7.73549 19.9488 8.0265 20.3078 8.0265C20.6667 8.0265 20.9578 7.73549 20.9578 7.3765L20.9578 0.696997ZM5.8208 11.9603C5.8208 12.1403 5.8908 12.3103 6.0308 12.4403C6.3008 12.6803 6.7108 12.6603 6.9508 12.4003L11.3508 7.56466L11.3508 18.4603C11.3508 18.8193 11.6418 19.1103 12.0008 19.1103C12.3598 19.1103 12.6508 18.8193 12.6508 18.4603L12.6508 7.56466L17.0508 12.4003C17.2908 12.6703 17.7008 12.6803 17.9708 12.4403C18.2308 12.2003 18.2508 11.7903 18.0108 11.5203L12.5208 5.4803C12.2408 5.1703 11.7608 5.1703 11.4808 5.4803L5.9908 11.5203C5.8708 11.6503 5.8208 11.8003 5.8208 11.9603Z"/></svg>

<svg xmlns="http://www.w3.org/2000/svg" fill="none" viewBox="0 0 24 24" focusable="false"><path fill="#74767B" fill-rule="evenodd" d="M20.95.69c0-.23-.13-.45-.33-.57a.67.67 0 0 0-.66.02L17.3 1.8c-.3.19-.39.59-.2.9.19.3.59.39.89.2l1.66-1.03v5.5c0 .36.29.65.65.65s.65-.29.65-.65zM5.82 11.96c0 .18.07.35.21.48.27.24.68.22.92-.04l4.4-4.84v10.9c0 .35.29.65.65.65.35 0 .65-.3.65-.65V7.56l4.4 4.84c.24.27.65.28.92.04.26-.24.28-.65.04-.92l-5.49-6.04a.7.7 0 0 0-1.04 0l-5.49 6.04c-.12.13-.17.28-.17.44"/></svg>
